!!!!SEGMENT: pl-wtm--iii-41-579_karasinski-adam-jozef--salut-a-l-ukraine.krn
!!!cenid: 19xx:53
!!!COM: Karasiński, Adam Józef
!!!COM-rismID: pe50045321
!!!CDT: 1868-1920
!!!CNT: Polish
!!!OTL: Salut a l’Ukraine
!!!PDT: 1920
!!!AGN: Secular
!!!YEC: Copyright 2022 Narodowy Instytut Fryderyka Chopina (https://polishscores.org)
!!!YEM: License CC-BY-4.0 (https://creativecommons.org/licenses/by/4.0)
!!!SMS-siglum: PL-Wtm
!!!SMS-shelfmark: III.41.579
!!!SMS-variant:
!!!SMS-altvar:
!!!SMS-shelfwork: W
!!!NIFC-rismSourceID: 1001136496
!!!NIFC-rismChildID: 1001136496
!!!NIFC-islandoraID: pl-wtm:19940
!!!URL-pdf-islandora: https://repozytorium.nifc.pl/islandora/object/pl-wtm%3A19940/datastream/PDF/view
!!!URL-scan: https://polish.musicsources.pl/pl/lokalizacje/galeria/druki-muzyczne/17479/2 @EN{Scan on Polish Music Sources Website} @PL{Skany w portalu Dziedzictwo Muzyki Polskiej w otwartym dostępie}
!!!IIIF:
!!!ONB-nifc:
!!!AIN: 1 piano
!!!key: e
!!!OMD: Introduction. \nTempo Polacca.
**kern	**kern	**dynam
*part1	*part1	*part1
*staff2	*staff1	*
*I"Piano.	*I"Piano.	*
*I'pf	*I'pf	*
*ICklav	*ICklav	*
*IGsolo	*IGsolo	*
*Ipiano	*Ipiano	*
*>[A,B,B1,B,B2,C,C1,C,C2,D,E,E1,E,E2,F]	*>[A,B,B1,B,B2,C,C1,C,C2,D,E,E1,E,E2,F]	*>[A,B,B1,B,B2,C,C1,C,C2,D,E,E1,E,E2,F]
*>A	*>A	*>A
*clefF4	*clefG2	*
*k[f#]	*k[f#]	*
*e:	*e:	*
*M3/4	*M3/4	*
=1	=1	=1
!	!	!LO:DY:a=2
8E\L	2.r	p
16eL 16B 16G\	.	.
16eJJ 16B 16G\	.	.
8eL 8B 8G\	.	.
8eJ 8B 8G\	.	.
8BB\L	.	.
8eJ 8B 8G\	.	.
=2	=2	=2
8E\L	2.r	.
16eL 16B 16G\	.	.
16eJJ 16B 16G\	.	.
8eL 8B 8G\	.	.
8eJ 8B 8G\	.	.
8BB\L	.	.
8eJ 8B 8G\	.	.
=3	=3	=3
8E\L	16e/LL	.
.	16f#/	.
16eL 16B 16G\	16g/	.
16eJJ 16B 16G\	16a/JJ	.
8eL 8B 8G\	8b\L	.
8eJ 8B 8G\	8b\J	.
8BB\L	8b/L	.
8eJ 8B 8G\	16b/L	.
.	16a#X/JJ	.
!!LO:LB:g=original
=4	=4	=4
8E\L	8b\L	.
16eL 16B 16G\	(16b\L	.
16eJJ 16B 16G\	16ee\JJ)	.
8eL 8B 8G\	4.b^\	.
8eJ 8B 8G\	.	.
8eL 8B 8G\	.	.
8eJ 8B 8G\	8b\	.
=5	=5	=5
8D#X\L	8b\L	.
16f#L 16B 16A\	(16b\L	.
16f#JJ 16B 16A\	16ff#\JJ)	.
8f#L 8B 8A\	4.b\	.
8f#J 8B 8A\	.	.
8f#L 8B 8A\	.	.
8f#J 8B 8A\	8b\	.
=6	=6	=6
8E\L	16b'\LL	.
.	16a'\	.
8eJ 8B\	16cc'\	.
.	16b'\JJ	.
8G\L	16a'/LL	.
.	16g'/	.
8eJ 8B\	16f#'/	.
.	16e'/JJ	.
8D#X\L	8f#/L	.
8BJ 8A\	8f#/J	.
=7	=7	=7
8BL 8G 8E\	16e'/LL	<
.	16f#'/	.
8BJ 8G 8E\	16g'/	.
.	16a'/JJ	.
8BL 8G 8E\	8b'\L	.
8BJ 8G 8E\	8b'\J	.
4c 4A 4E^^\	4a^^</	[[
!!LO:LB:g=original
=8	=8	=8
8BL 8G 8E\	16e'/LL	.
.	16f#'/	.
8BJ 8G 8E\	16g'/	.
.	16a'/JJ	.
8BL 8G 8E\	8b'\L	.
8BJ 8G 8E\	8b'\J	.
4c 4A 4E^^\	4a^^</	.
=9	=9	=9
8B 8G 8E^\	8g^/L	f
8r	16g/L	.
.	16g/JJ	.
4r	8g/L	.
.	8g/J	.
8B-X 8C^\	8f#L 8e 8c^/	.
8r	8f#J 8e 8c^/	.
=11	=11	=11
8A 8BB^\	8f#L 8d#X 8B^/	.
!	!LO:TX:b:i:t=ritardando	!
8r	16B/L	.
.	16B/JJ	.
4r	8B/L	.
.	8B/J	.
4r	8B/L	.
.	8B/J	.
=12	=12	=12
!	!LO:TX:b:i:t=a tempo	!
(4.BB^^</	8r	.
.	16f#LL 16d#X 16B/	.
!LO:TX:b:i:t=cantabile basso	!	!
.	16f#JJ 16d# 16B/	.
.	8f#L 8d# 8B/	.
!	!	!
8A^\	8f#J 8d# 8B/	.
8G^\L	8r	.
8F#^\J)	8f# 8d# 8B/	.
!!LO:LB:g=original
=13	=13	=13
(4.BB^^</	8r	.
.	16gLL 16e 16B/	.
.	16gJJ 16e 16B/	.
.	8gL 8e 8B/	.
8G^\	8gJ 8e 8B/	.
8F#^\L	8r	.
8E^\J)	8g 8e 8B/	.
=14	=14	=14
(4.BB^^</	8r	.
.	16f#LL 16d#X 16B/	.
.	16f#JJ 16d# 16B/	.
.	8f#L 8d# 8B/	.
8F#^\	8f#J 8d# 8B/	.
8E^\L	8r	.
8D#X^\J)	8a 8f# 8B/	.
=15	=15	=15
!	!	!LO:HP:b=2
(8E^\L	8r	<
8F#^\	8g 8e 8B/	.
8G^\	8r	.
8A^\	8g 8e/	.
8c^\	8r	.
8B^\J)	8g 8e/	[
=16	=16	=16
(4.BB^^</	8r	.
.	16f#LL 16d#X 16B/	.
.	16f#JJ 16d# 16B/	.
.	8f#L 8d# 8B/	.
8A\	8f#J 8d# 8B/	.
8G\L	8r	.
8F#\J)	8f# 8d# 8B/	.
!!LO:LB:g=original
=17	=17	=17
(4.BB^^</	8r	.
.	16gLL 16e 16B/	.
.	16gJJ 16e 16B/	.
.	8gL 8e 8B/	.
8G^\	8gJ 8e 8B/	.
8F#^\L	8r	.
8E^\J)	8g 8e 8B/	.
=18	=18	=18
!	!	!LO:HP:a=2
4E 4EE^^</	8r	<
.	16eeLL 16g 16e^/	.
.	16eeJJ 16g 16e^/	.
!	!	!LO:DY:a=2
4C 4CC^^</	8r	ff
.	16ggLL 16b-X 16g\	.
.	16ggJJ 16b- 16g\	.
4AA#X 4AAA#X^^</	8r	.
.	16ff#LL 16a#X 16f#\	.
.	16ff#JJ 16a# 16f#\	.
=19	=19	=19
8BB^^</	8ff# 8b 8f#^^\	.
8r	16B/LL	.
.	16B/JJ	.
4r	8B/	.
.	8r	.
4r;	4r;	.
!!LO:PB:g=original
=20||	=20||	=20||
!!!OMD: Tempo di Valse.
*M3/4	*M3/4	*
!	!	!
4E 4EE/	4r	p
4r	4g 4e 4B/	.
4r	4g 4e 4B/	.
=21	=21	=21
4BB 4BBB/	4r	.
4r	4g 4e 4B/	.
4r	4g 4e 4B/	.
=22	=22	=22
4E 4EE/	4r	.
4r	4g 4e 4B/	.
4r	4g 4e 4B/	.
=23	=23	=23
4BB 4BBB/	8r	.
.	8b\	.
4r	4.f#^;/	.
4r	.	.
.	(8g/	.
=24!|:	=24!|:	=24!|:
*>B	*>B	*>B
4E 4EE/	4e/)	.
4e 4B 4G\	4r	.
4e 4B 4G\	[4e^/	.
=25	=25	=25
4BB/	8.e/L]	.
.	16b/Jk	.
4e 4B 4G\	4.f#^/	.
4e 4B 4G\	.	.
.	8g/	.
=26	=26	=26
4E 4EE/	[2.e^/	.
4e 4B 4G\	.	.
4e 4B 4G\	.	.
=27	=27	=27
4e 4B 4G^\	4e/]	.
!	!	!LO:HP:t=crescendo
4r	(8d#X/L	<
.	8e/	.
4r	8g/	.
.	8b/J)	.
=28	=28	=28
*	*^	*
2.B: 2.E: 2.GG#X:\	2.ee^/	4r	.
.	.	4b 4g#X 4e\	.
.	.	4b 4g# 4e\	.
!!LO:LB:g=original
=29	=29	=29	=29
2.E 2.EE/	(2.dd/	4r	.
.	.	4g#X 4d\	.
.	.	4b\	.
=30	=30	=30	=30
2.A 2.AA\	[2.cc^/)	4r	.
.	.	4a 4e 4c\	.
.	.	4a 4e 4c\	.
*	*v	*v	*
=31	=31	=31
4C/	4cc\]	.
4r	4.a^/	.
4r	.	.
.	(8cc\	.
=32	=32	=32
4AA/	4f#/)	.
4r	4r	.
4e 4c 4A\	4f#/	.
=33	=33	=33
2f# 2e 2c 2A\	4cc\	.
.	4.b^\	.
4r	.	.
.	8a#X/	.
=34	=34	=34
4BB/	[2.b^\	.
8r	.	.
8e 8B 8G\	.	.
4e 4B 4G\	.	.
=35	=35	=35
4e 4B 4G^\	4b\]	.
4r	4.cc#X\	.
4r	.	.
.	8b\	.
=36	=36	=36
!	!	!LO:HP:t=crescendo
4C#X 4CC#X/	4a#X/	<
4e 4A#X 4F#\	4r	.
4r	[4cc#X^\	.
!!LO:LB:g=original
=37	=37	=37
4FF#/	4cc#\]	.
4e 4A#X 4F#\	4.ee\	.
4e 4A# 4F#\	.	.
.	8dd#X\	.
=38	=38	=38
4BB/	[2.ff#^\	.
4d#X 4B 4A\	.	.
4d# 4B 4A\	.	.
=39	=39	=39
4d#X 4B 4A^\	8ff#\L]	<
.	(8b\	.
4r	8cc#X\	.
.	8dd#X\	.
4r	8ee\	.
.	8ff#\J	[
=40	=40	=40
(4B 4G 4E^\	4gg^\)	fp
4e\)	4r	.
4e\	4gg'\	.
=41	=41	=41
(4c 4A 4E^\	4.aa 4.a\	.
4e\)	.	.
.	8gg\	.
4e\	4ff#\	.
=42	=42	=42
*	*^	*
(4B 4G 4E^\	[2.gg^/	4r	.
4e\)	.	4b 4g\	.
4e\	.	4b 4g\	.
*	*v	*v	*
=43	=43	=43
4B 4G 4E^\	8gg\L]	<
.	(8bn\	.
4r	8cc#X\	.
.	8dd#X\	.
4r	8ee\	.
.	8ff#\J	[
!!LO:LB:g=original
=44	=44	=44
(4B 4G 4E^\	4gg^\)	fp
4e\)	4r	.
4e\	4gg'\	.
=45	=45	=45
(4c 4A 4E^\	4.aa 4.a\	.
4e\)	.	.
.	8gg\	.
4e\	4ff#\	.
=46	=46	=46
*	*^	*
4B 4G 4E^\	[2.gg^/	4r	.
4e\	.	4b 4g\	.
4e\	.	4b 4g\	.
*	*v	*v	*
=47	=47	=47
4B 4G 4E^\	4gg\]	.
4r	(8b\L	.
.	8ee\	.
4r	8gg\	.
.	8bb\J	.
=48	=48	=48
4F# 4FF#/	4aa#X'\)	f
4e 4A#X 4F#^\	4r	.
4r	[4aa#X [4ee [4a#X^\	.
=49	=49	=49
4D#X\	4aa#] 4ee] 4a#\]	.
4f# 4B 4A\	(8an\L	.
.	8dd#X\	.
4f# 4B 4A\	8ff#\	.
.	8aany\J	.
=50	=50	=50
4E\	4gg'\)	.
4e 4B 4G^\	4r	.
4r	4gg 4b 4g\	.
!!LO:LB:g=original
=51	=51	=51
4AA/	4.ff#^\	.
4f# 4e 4c 4A^\	.	.
.	8ee\	.
4r	8cc\L	.
.	8a\J	.
=52	=52	=52
4BB/	4.b^\	.
4B 4G^\	.	.
.	8g/	.
4r	8f#/L	.
.	8e/J	.
=53	=53	=53
!!LO:TX:a:t=1.
*>B1	*>B1	*>B1
4C#X/	4f#/	.
4A#X 4F#\	4.c/	.
4A# 4F#\	.	.
.	8d#X/	.
=54	=54	=54
4F#\	[2.B/	.
4D#X\	.	.
4C#X/	.	.
=55	=55	=55
4BB^^</	8.B/L]	.
.	16b/Jk	.
!	!LO:N:vis=4	!
4r	4.f#;</	.
!	!	!
4r	.	.
.	8g/	.
=56||	=56||	=56||
!!LO:TX:a:t=2.
*>B2	*>B2	*>B2
4BB/	4g/	.
4B 4A\	4.f#^/	.
4A\	.	.
.	8B/	.
=57	=57	=57
4E\	[2.e [>2.B [2.G/	.
4BB/	.	.
4GG/	.	.
=58	=58	=58
4EE/	4e] 4B] 4G/]	.
!	!LO:TX:b:i:t=rit.	!
4r	4e/	.
4r	4e-X/	.
!!LO:PB:g=original
=59!|:	=59!|:	=59!|:
*>C	*>C	*>C
.	(8qc/	.
[2.D: 2.FF#:/	4d/)	.
.	4en/	.
.	4f#/	.
=60	=60	=60
*^	*^	*
2.D/_	2.DD\	2.cc^/	4r	.
.	.	.	4e 4c\	.
.	.	.	4e 4c\	.
=61	=61	=61	=61	=61
2.D/_	2.EE\	2.b^/	4r	.
.	.	.	4e 4c\	.
.	.	.	4e 4c\	.
=62	=62	=62	=62	=62
2.D/]	2.FF#\	2.a^/	4r	.
.	.	.	4d 4c\	.
.	.	.	4d 4c\	.
*v	*v	*	*	*
*	*v	*v	*
=63	=63	=63
.	8qB/	.
[2.D: 2.GG:/	4d/	.
.	4.e^/	.
.	8g/	.
=64	=64	=64
*^	*^	*
2.D/_	2.DD\	2.b^/	4r	.
.	.	.	4d 4B\	.
.	.	.	4d 4B\	.
=65	=65	=65	=65	=65
2.D/_	2.GG\	2.a^/	4r	.
.	.	.	4d 4B\	.
.	.	.	4d 4B\	.
=66	=66	=66	=66	=66
2.D/]	2.DD\	2.g/	4r	.
.	.	.	4d 4B\	.
.	.	.	4d 4B\	.
*v	*v	*	*	*
!!LO:LB:g=original
=67	=67	=67	=67
(<4DD#X/	4g/	4ryy	.
4F# 4BB\)	4.f#/	4ryy	.
4r	.	16ryy	.
.	.	[[16B\LL	.
.	8b/	16b\JJ	.
.	.	16ryy	.
=68	=68	=68	=68
*	*	*^	*
2.BB 2.BBB/	2.b/	2B\]]	4re	<
.	.	.	4f# 4d#X/	.
.	.	4ryy	4f# 4d#/	.
*	*	*v	*v	*
=69	=69	=69	=69
2.AA 2.AAA^/	2.cc 2.c^/	4r	.
.	.	4f# 4e\	.
.	.	4f# 4e\	.
=70	=70	=70	=70
2.FF# 2.FFF#^/	2.a 2.A^/	4r	.
.	.	4e 4c\	.
.	.	4e 4c\	[
*	*v	*v	*
=71	=71	=71
4EE/	2g/	.
4e 4B 4G\	.	.
4e 4B 4G\	4f#/	.
=72	=72	=72
4GG/	4e/	.
4e 4B 4G\	4.g/	.
4e 4B 4G\	.	.
.	(<8a/	.
=73	=73	=73
4EE/	4b\)	.
4e 4B 4G\	4r	.
4r	4ee\	.
=74	=74	=74
.	(8qee/	.
4BB/	2.b^\)	.
4e 4B 4G\	.	.
4e 4B 4G\	.	.
!!LO:LB:g=original
=75	=75	=75
.	(8qe/	.
4AA/	4a/)	.
4c 4E\	4.b^\	.
4c 4E\	.	.
.	8cc\	.
=76	=76	=76
*	*^	*
4AA/	2.ee^/	4r	<
4c 4E\	.	4a 4e\	.
4c 4E\	.	4a 4e\	.
=77	=77	=77	=77
4AA/	2.dd#X^/	4r	.
4c 4F#X\	.	4a 4d#X\	.
4c 4F#\	.	4a 4d#\	.
=78	=78	=78	=78
4AA/	2.ee^/	4r	.
4c 4E\	.	4cc 4a 4e\	.
4c 4E\	.	4cc 4a 4e\	.
*	*v	*v	*
=79	=79	=79
.	(8qd/	.
4GG/	4g/)	p
4B 4D\	4.a/	.
4B 4D\	.	.
.	8b\	.
=80	=80	=80
*	*^	*
4GG/	2.dd^/	4r	.
4B 4D\	.	4g 4d\	.
4B 4D\	.	4g 4d\	.
=81	=81	=81	=81
4GG/	2.cc#X^/	4r	.
4A#X 4E\	.	4g 4c#X\	.
4A# 4E\	.	4g 4c#\	.
=82	=82	=82	=82
4GG/	2.dd^/	4r	.
4B 4D\	.	4g 4d\	.
4B 4D\	.	4g 4d\	.
*	*v	*v	*
!!LO:LB:g=original
=83	=83	=83
!!LO:TX:a:t=1.
*>C1	*>C1	*>C1
4FF#/	4.b^\	f
4d#X 4B 4F#^\	.	.
.	8a#X/	.
4r	8g#X/L	.
.	8f#/J	.
=84	=84	=84
4FF#/	4g#X'/	.
4d#X 4B 4F#\	4r	.
4d# 4B 4F#\	4g#'/	.
=85	=85	=85
4FF#/	4a#X'/	.
4e 4A#X 4F#\	4r	.
4e 4A# 4F#\	4a#/	.
=86	=86	=86
4FF#/	4.b^\	.
4d#X 4B 4F#^\	.	.
.	8cc#X\	.
4r	4dd#X\	.
=87	=87	=87
4FF#/	4.ff#^\	.
4d#X 4B 4F#\	.	.
.	8ee\	.
4r	4dd#X\	.
=88	=88	=88
4FF#/	4cc#X'\	.
4e 4A#X 4F#\	4dd#X'\	.
4e 4A# 4F#\	4f#'/	.
=89	=89	=89
4B^\	4b^\	.
4r	8dd\L	.
.	8dd\J	.
4r	4dd\	.
=90	=90	=90
4c 4F# 4D^\	4dd 4f# 4d^/	.
!	!LO:TX:b:i:t=rit.	!
4r	4dd\	.
4r	4dd\	.
!!LO:LB:g=original
=91:|!	=91:|!	=91:|!
!!LO:TX:a:t=2.
*>C2	*>C2	*>C2
!	!LO:N:vis=4	!
4.c 4.A-X 4.C^\	4.ee-X 4.a 4.e-X^/	.
8c 8C^\	8ee- 8e-^/	.
4c 4C^\	4ee- 4e-^/	.
=92	=92	=92
4c\	4a-X'/	.
4A-X\	4cc'\	.
4E-X\	4ee-X'\	.
=93	=93	=93
(4GG/	4.dd 4.b 4.g 4.d^/	.
4B 4D\)	.	.
.	8dd 8d/	.
4r	4dd 4d/	.
=94	=94	=94
(<4EE/	4.b 4.g#X 4.e 4.d/	.
4G#X 4BB\)	.	.
.	8b\	.
4r	4b\	.
=95	=95	=95
(<4CC/	4.a 4.e 4.c^/	.
4A 4E 4C\)	.	.
.	8a/	.
4r	4a/	.
=96	=96	=96
4DD/	4f# 4c/	.
2D\	4e/	.
.	4d/	.
=97	=97	=97
4G\	[2.g [>2.d [2.B/	.
4D\	.	.
4BB/	.	.
=98	=98	=98
4GG/	4g] 4d] 4B/]	.
4r	4r	.
4r	4G^/	.
!!LO:PB:g=original
=99||	=99||	=99||
*>D	*>D	*>D
*k[]	*k[]	*
*	*^	*
!	!	!	!LO:DY:rj
2.G 2.GG/	2g/	2.d 2.B\	f
.	4g/	.	.
=100	=100	=100	=100
2.G-X 2.GG/	2a/	2.d#X 2.c\	.
.	4a/	.	.
*	*v	*v	*
=101	=101	=101
2.F 2.GG/	4.b 4.f 4.B^/	.
.	8a/	.
.	4g/	.
=102	=102	=102
2.r	8gg\	.
.	8r	.
.	4r	.
.	4G;/	.
=103!|:	=103!|:	=103!|:
*>E	*>E	*>E
!	!	!
(4CC^/	4.c 4.G^/	p
!	!LO:TX:b:i:t=cantabile	!
4E 4GG/)	.	.
.	8d/	.
4r	4e/	.
=104	=104	=104
4GG 4GGG/	4g: 4G:/	.
4r	4e 4c/	.
4r	4g 4G/	.
=105	=105	=105
*	*^	*
2.C 2.CC/	2.a: 2.A^:/	4r	.
.	.	4e 4c\	.
.	.	4e 4c\	.
=106	=106	=106	=106
2.GG 2.GGG/	2.b: 2.B^:/	4r	.
.	.	4e 4c\	.
.	.	4e 4c\	.
!!LO:LB:g=original
=107	=107	=107	=107
2.C 2.CC/	2.a: 2.A^:/	4r	.
.	.	4e 4c\	.
.	.	4e 4c\	.
=108	=108	=108	=108
2.C#X 2.CC#X/	(2g 2G/	4r	.
.	.	4B-X\	.
.	4e/)	4r	.
=109	=109	=109	=109
2.D 2.DD/	[2.f 2.F^/	4r	.
.	.	4A\	.
.	.	4A\	.
=110	=110	=110	=110
2.E 2.EE/	2.f/]	4r	.
.	.	4A 4G\	.
.	.	4A 4G\	.
*	*v	*v	*
=111	=111	=111
4FF/	4.d^/	<
4A 4F\	.	.
.	8e/	.
4r	4f/	.
=112	=112	=112
4C/	4a/	.
4d 4A 4F\	4f/	.
4d 4A 4F\	4a/	.
=113	=113	=113
4BB/	2.dd^\	.
4A 4F\	.	.
4A 4F\	.	.
=114	=114	=114
4AA/	2.cc^\	.
4d 4A 4F\	.	.
4d 4A 4F\	.	.
!!LO:LB:g=original
=115	=115	=115
4GG/	2.b^\	.
4B 4G 4F\	.	.
4B 4G 4F\	.	[[
=116	=116	=116
.	(8qdd/	.
4BB/	4cc\)	.
4d 4G 4F\	4r	.
4d 4G 4F\	4a/	.
=117	=117	=117
4C/	[2.g/	.
4c 4G 4E\	.	.
4c 4G 4E\	.	.
=118	=118	=118
4GG/	2.g/]	.
4c 4G 4E\	.	.
4c 4G 4E\	.	.
=119	=119	=119
4C/	4.c^/	<
4c 4G 4E\	.	.
.	8d/	.
4c 4G 4E\	4e/	.
=120	=120	=120
4GG/	4g/	.
4c 4G 4E\	4e/	.
4c 4G 4E\	4g/	.
=121	=121	=121
*	*^	*
4C/	2.ee^/	4r	.
4c 4G 4E\	.	4g 4e\	.
4c 4G 4E\	.	4g 4e\	.
*	*v	*v	*
=122	=122	=122
4E\	2.dd\	.
4c 4G\	.	.
4c 4G\	.	[[
!!LO:LB:g=original
=123	=123	=123
4AA/	2.cc#X\	f
4A 4G\	.	.
4A 4G\	.	.
=124	=124	=124
4C#X/	4ee\	.
4e 4A 4G\	4.b-X\	.
4e 4A 4G\	.	.
.	8a/	.
=125	=125	=125
*^	*^	*
4r	2.D^\	[2.dd^/	4r	.
4d 4A/	.	.	4a 4f\	.
4d 4A/	.	.	4a 4f\	.
=126	=126	=126	=126	=126
4r	2.E^\	2.dd/]	4r	.
4c#X 4A/	.	.	4a 4g\	.
4c# 4A/	.	.	4a 4g\	.
*v	*v	*	*	*
*	*v	*v	*
=127	=127	=127
4FF/	4.a/	.
4d 4A 4F\	.	.
.	8b\	.
4r	4cc\	.
=128	=128	=128
4FF#X/	4cc\	.
4d#X 4A 4F#X\	4b\	.
4r	4cc\	.
=129	=129	=129
*	*^	*
4GG/	2.gg^/	4r	.
4e 4c\	.	4cc 4g\	.
4e 4c\	.	4cc 4g\	.
=130	=130	=130	=130
4C/	2.ee/	4r	.
4e 4c 4G\	.	4cc 4g\	.
4e 4c 4G\	.	4cc 4g\	.
*	*v	*v	*
!!LO:LB:g=original
=131	=131	=131
!!LO:TX:a:t=1.
*>E1	*>E1	*>E1
4AA/	(2dd^\	.
4c 4F#X 4D\	.	.
4c 4F# 4D\	[4a [>4f#X [4d/)	.
=132	=132	=132
4DD/	4a] 4f#] 4d/]	.
4c 4F#X 4D\	4.b^\	.
4c 4F# 4D\	.	.
.	8cc\	.
=133	=133	=133
*	*^	*
4G 4GG^/	[2.dd/	4r	.
4B 4BB^\	.	4b 4g 4fn\	.
!	!LO:TX:b:i:t=ritardando	!	!
4A 4AA^\	.	4b 4g 4f\	.
=134	=134	=134	=134
4G 4GG^/	2.dd/]	4r	.
4F 4FF^/	.	4b 4g 4f\	.
4D 4DD^/	.	4b 4g 4f\	.
*	*v	*v	*
=135:|!	=135:|!	=135:|!
!!LO:TX:a:t=2.
*>E2	*>E2	*>E2
4AA/	(2dd^\	.
4c 4F#X 4D\	.	.
4c 4F# 4D\	4a 4f 4d/)	.
=136	=136	=136
4GG/	4b\	.
4B 4G 4Fn\	4g/	.
4B 4G 4F\	4gg\	.
=137	=137	=137
4c\	[2.cc [>2.g [2.e/	.
4G\	.	.
4E\	.	.
=138	=138	=138
4C/	4cc] 4g] 4e/]	.
4r	4r	.
4r	4g/	.
!!LO:PB:g=original
=139||	=139||	=139||
!!!OMD: Coda.
*>F	*>F	*>F
*	*^	*
!	!	!	!LO:DY:rj
2.c 2.G 2.C\	2ee/	2.g 2.e\	f
.	4ee/	.	.
=140	=140	=140	=140
*^	*	*	*
[2.F#X/	(2AA\	(2ff#X/	2.cc 2.f#X\	.
.	4AA#X\)	4ee/)	.	.
*	*	*v	*v	*
=141	=141	=141	=141
4F#/]	4BB\	4dd#X\	.
4r	2ryy	8B/L	.
.	.	8B/J	.
4r;	.	4B;</	.
*v	*v	*	*
=142	=142	=142
2.r	8r	.
.	8b\	p
.	4.f#X^;</	.
.	8g/	.
=143||	=143||	=143||
*k[f#]	*k[f#]	*
4E 4EE/	4e^/	p
4e 4B 4G\	4r	.
4e 4B 4G\	[4e^/	.
=144	=144	=144
4BB/	8.e/L]	.
.	16b/Jk	.
4e 4B 4G\	4.f#^/	.
4e 4B 4G\	.	.
.	8g/	.
=145	=145	=145
4E 4EE/	[2.e^/	.
4e 4B 4G\	.	.
4e 4B 4G\	.	.
!!LO:LB:g=original
=146	=146	=146
4e 4B 4G^\	4e/]	.
4r	8d#X/L	.
.	8e/	.
4r	8g/	.
.	8b/J	.
=147	=147	=147
*	*^	*
!	!	!	!
2.B: 2.E: 2.GG#X:\	2.ee^/	4r	<
.	.	4b 4g#X 4e\	.
.	.	4b 4g# 4e\	.
=148	=148	=148	=148
2.E 2.EE/	(2dd^/	4r	.
.	.	4g#X 4d\	.
.	4b/)	4r	.
=149	=149	=149	=149
2.A 2.AA\	[2.cc^/	4r	.
.	.	4a 4e 4c\	.
.	.	4a 4e 4c\	.
*	*v	*v	*
=150	=150	=150
4C/	4cc\]	.
4r	4.a/	.
4r	.	.
.	(8cc\	.
=151	=151	=151
4AA/	4f#/)	.
4r	4r	.
4e 4c 4A\	4f#/	.
=152	=152	=152
2f# 2e 2c 2A\	4cc\	.
.	4.b\	.
4r	.	.
.	8a#X/	.
!!LO:LB:g=original
=153	=153	=153
4BB/	[2.b^\	.
8r	.	.
8e 8B 8G\	.	.
4e 4B 4G\	.	.
=154	=154	=154
4e 4B 4G^\	4b\]	.
4r	4.cc#X\	.
4r	.	.
.	(8b\	f
=155	=155	=155
4C#X/	8a#X/)	.
.	8r	.
4e 4A#X 4F#\	4r	.
4r	[4cc#X\	.
=156	=156	=156
4FF#/	4cc#\]	.
4e 4A#X 4F#\	4.ee\	.
4e 4A# 4F#\	.	.
.	8dd#X\	.
=157	=157	=157
4BB/	[2.ff#^\	.
4d#X 4B 4A\	.	.
4d# 4B 4A\	.	.
=158	=158	=158
4d#X 4B 4A^\	8ff#\L]	<
.	(8b\	.
4r	8cc#X\	.
.	8dd#X\	.
4r	8ee\	.
.	8ff#\J	[
=159	=159	=159
4E 4EE/	4gg^\)	.
4e 4B 4G\	4r	.
4r	4gg'\	.
!!LO:LB:g=original
=160	=160	=160
!	!	!LO:DY:rj
(4c 4A 4E^\	4.aa 4.a\	fp
4e\)	.	.
.	8gg\	.
4e\	4ff#\	.
=161	=161	=161
*	*^	*
4B 4G 4E^\	[2.gg^/	4r	.
4e\	.	4b 4g\	.
4e\	.	4b 4g\	.
*	*v	*v	*
=162	=162	=162
4B 4G 4E^\	8gg\L]	<
.	(8b\	.
4r	8cc#X\	.
.	8dd#X\	.
4r	8ee\	.
.	8ff#\J	[
=163	=163	=163
(4B 4G 4E\	4gg\)	fp
4e\)	4r	.
4e\	4gg\	.
=164	=164	=164
(4c 4A 4E^\	4.aa 4.a^\	.
4e\)	.	.
.	8gg\	.
4e\	4ff#\	.
=165	=165	=165
*	*^	*
(4B 4G 4E^\	[2.gg/	4r	.
4e\)	.	4b 4g\	.
4e\	.	4b 4g\	.
*	*v	*v	*
=166	=166	=166
4B 4G 4E^\	4gg\]	.
4r	(8b\L	.
.	8ee\	.
4r	8gg\	.
.	8bb\J	.
!!LO:LB:g=original
=167	=167	=167
4F# 4FF#/	4aa#X'\)	f
4e 4A#X 4F#\	4r	.
4r	[4aa#X [4ee [4a#X\	.
=168	=168	=168
4D#X\	4aa#] 4ee] 4a#\]	.
4f# 4B 4A\	(8a#y\L	.
.	8dd#X\	.
4f# 4B 4A\	8ff#\	.
.	8aa#y\J	.
=169	=169	=169
4E\	4gg\)	.
4e 4B 4G\	4r	.
4r	4gg 4b 4g\	.
=170	=170	=170
4AA/	4.ff#^\	.
4f# 4e 4c 4A^\	.	.
.	8ee\	.
4r	8cc\L	.
.	8a\J	.
=171	=171	=171
4BB/	4.b^\	.
4B 4G\	.	.
.	8g/	.
4r	8f#/L	.
.	8e/J	.
=172	=172	=172
4BB/	4g/	.
4B 4A\	4.f#^/	.
4A\	.	.
.	8B/	.
=173	=173	=173
2.E 2.EE^^</	4e/	ff <
.	4ee 4b 4g 4e^^</	.
.	4r	.
!!LO:LB:g=original
=174	=174	=174
2.D 2.DD^^</	4r	.
.	4ee 4b 4g#X 4e^^</	.
.	4r	[[
=175	=175	=175
[2.C [2.CC^^</	4r	.
.	8eeL 8a#X 8gn 8e^/	.
.	8eeJ 8a# 8g 8e^/	.
.	4ee 4a# 4g 4e^/	.
=176	=176	=176
4C] 4CC/]	4ee 4a#X 4g 4e^/	.
4BB 4BBB^^</	4r	.
4AA#X 4AAA#X^^</	4ee 4a# 4g 4e^/	.
=177	=177	=177
4BB 4BBB^^</	4ee 4b 4g 4e^^</	.
4r	4r	.
4r	4r	.
=178	=178	=178
4BB 4BBB^^</	4b 4f# 4d#X 4B^^</	.
4r	4r	.
4r	4r	.
=179	=179	=179
8qE [8qEE/	(8qe 8qB 8qG/	.
[2.E 2.EE^^</_	[2.e [>2.B [2.G^^</)	.
=180	=180	=180
4E] 4EE/]	4e] 4B] 4G/]	.
4r	4r	.
!	!LO:TX:b:i:t=Fine.	!
4r	4r	.
==	==	==
*-	*-	*-
!!!system-decoration: {(s1,s2)}
!!!RDF**kern: > = above
!!!RDF**kern: < = below
!!!ENC: Anastazja Marusiak
!!!END: 2023-09-13
!!!EED: Marta Lawrence
!!!EEV: 2023-09-28
